!!!OTL: 4. Unser Vaterland.
!!!COM: H. G. Nägeli
!!!ODT: 1816
!!!ARE: Europa, Mitteleuropa, Deutschland
!!!SCT: B0004
!!!TXL: @@DE
!!!YEM: Copyright 1995, estate of Helmut Schaffrath.
**kern	**text
*ICvox	*
*Ivox	*
*M4/4	*
*met(c)	*
*k[f#c#]	*
*clefG2	*
*D:	*
!LO:TX:a:t=Mäßig Einer.	!
{4a	Kennt
=1	=1
4.f#	ihr
8g	das
4a	Land,
4dd	ſo
=2	=2
4.cc#	wun-
8dd	-der-
4ee}	-ſchön
{4g	in
=3	=3
4f#	ſei-
4d	-ner
4.b	Ei-
8a	-chen
=4	=4
8gL	grü-
8f#J	.
8eL	-nem
8dJ	.
4.a}	Kranʒ?
{8e	das
=5	=5
4.cc#	Land,
16ddL	wo
16eeJ	.
8ddL	auf
8cc#J	.
8bL	den
8aJ	.
=6	=6
4.g#	ſanf-
8a	-ten
4b}	Höhn
{4e	die
=7	=7
4f#	Trau-
4g#	-be
4a	reift
4b	im
=8	=8
(2cc#	Son-
8eeL	.
8ddJ)	.
8bL	-nen-
8cc#J	.
=9	=9
2a	-glanʒ?
4r}	.
=||	=||
!LO:TX:a:t=Alle	!
!LO:TX:a:t=P:encoded only hogher voice:problem	!
{4a	Das
=10	=10
4.dd	ſchö-
8cc#/	-ne
4b/	Land
4b/	iſt
=11	=11
4.a	uns
8g	be-
4f#}	-kannt
{4a	es
=12	=12
4b/	iſt
4cc#/	das
4dd/	deut-
4dd/	-ſche
=13	=13
2ee/	Va-
2cc#/	-ter-
=14	=14
2dd/	-land.
4r}	.
==	==
!!!AGN: politisch, national, Vaterlands - Lied
!!!GTL: Vaterlandslieder und Heimathgrüße
!!!ONB: ESAC (Essen Associative Code) Database: BOEHME
!!!AMT: simple quadruple
!!!AIN: vox
!!!EED: Helmut Schaffrath
!!!EEV: 1.0
!!@@COMMENT: "Gedicht von Beit Weber dem Jüngeren d. i. Paul Wigand (nach F. Weiter, Lexikon Pseudon. Leipzig 1856 S. 157)
!! Die Melodie vom Schweizer Nägeli entsand erst 1816 (nach Erks Angabe), somit sang man das Lied 1814 in Offenbach nach anderer Weise"
!!@@END:
!!Text: Paul Wigand
!!!URL-scan: https://archive.org/details/BoehmeVtLieder1895/page/n29/mode/2up
!!!ENC: Anna Maria Matuszewska
!!!EEV: 2024/13/06
*-	*-
